src/icons/icons_set_04/016-bulle.svg

<svg height="50" viewBox="0 0 50 50" width="50" xmlns="http://www.w3.org/2000/svg"><path d="m41.5899 33.7103321h.0026929c.7217103 1.9712384.107718 3.2988621-.3258467 3.9128544-.6856253.9658301-1.804975 1.5295386-2.9891731 1.5053584-.6337427-.0084758-1.260307-.1354327-1.8473628-.3743199l-4.9227103-1.9281513c-8.1718898 5.5343452-19.1547276 4.3060482-25.90211286-2.8968367-6.74738531-7.202885-7.25661393-18.2424559-1.20097354-26.03591331 6.0556404-7.79345744 16.8787637-10.02761057 25.5254396-5.26906506 8.646676 4.75854551 12.5504681 15.09739677 9.2067705 24.38332407zm-11.3400071-13.4647436c-.0074045-1.2187654-.9975088-2.2028546-2.2162967-2.2028321-.8976301.0000166-1.7066112.5414684-2.0488479 1.3712961-.3422367.8298276-.1501388 1.7841434.4865125 2.4169269.6366515.6327835 1.5921202.8190624 2.4198467.4717753.8277268-.3472872 1.3642389-1.1595527 1.3587854-2.0571662zm-8.1677134 0c-.0035603-.5878019-.2404836-1.1501134-.6586474-1.5632269-.4181638-.4131134-.9833124-.6431871-1.5711142-.6396052-1.2239935.0074588-2.2101941 1.0057401-2.2027504 2.2297338.0074437 1.2239936 1.005713 2.2102065 2.2297067 2.2027778 1.2239937-.0074286 2.2102189-1.0056857 2.2028053-2.2296795zm-8.1973359 0c-.0059287-1.2183309-.9952585-2.2028465-2.2136039-2.2028321-.8978744-.0010744-1.70768319.5396856-2.05076973 1.3694273s-.15165397 1.7845009.48478623 2.4178441c.6364402.6333431 1.5921218.8201161 2.4201801.4729861.8280583-.3471299 1.3648615-1.1595669 1.3594073-2.0574254z" transform="translate(3.995 4.802885)"/></svg>

<?xml version="1.0" encoding="UTF-8"?>
<svg width="50px" height="50px" viewBox="0 0 50 50" version="1.1" xmlns="http://www.w3.org/2000/svg" xmlns:xlink="http://www.w3.org/1999/xlink">
    <!-- Generator: Sketch 52.4 (67378) - http://www.bohemiancoding.com/sketch -->
    <title>016-bulle</title>
    <desc>Created with Sketch.</desc>
    <g id="016-bulle" stroke="none" stroke-width="1" fill="none" fill-rule="evenodd">
        <g id="Group" transform="translate(3.995000, 4.802885)" fill="#000000" fill-rule="nonzero">
            <g id="015-bulle-02">
                <g id="ICONSET-01">
                    <g id="015-bulle-02">
                        <path d="M41.5899,33.7103321 L41.5925929,33.7103321 C42.3143032,35.6815705 41.7003109,37.0091942 41.2667462,37.6231865 C40.5811209,38.5890166 39.4617712,39.1527251 38.2775731,39.1285449 C37.6438304,39.1200691 37.0172661,38.9931122 36.4302103,38.754225 L31.5075,36.8260737 C23.3356102,42.3604189 12.3527724,41.1321219 5.60538714,33.929237 C-1.14199817,26.726352 -1.65122679,15.6867811 4.4044136,7.89332369 C10.460054,0.0998662479 21.2831773,-2.13428688 29.9298532,2.62425863 C38.5765292,7.38280414 42.4803213,17.7216554 39.1366237,27.0075827 L41.5899,33.7103321 Z M30.2498929,20.2455885 C30.2424884,19.0268231 29.2523841,18.0427339 28.0335962,18.0427564 C27.1359661,18.042773 26.326985,18.5842248 25.9847483,19.4140525 C25.6425116,20.2438801 25.8346095,21.1981959 26.4712608,21.8309794 C27.1079123,22.4637629 28.063381,22.6500418 28.8911075,22.3027547 C29.7188343,21.9554675 30.2553464,21.143202 30.2498929,20.2455885 Z M22.0821795,20.2455885 C22.0786192,19.6577866 21.8416959,19.0954751 21.4235321,18.6823616 C21.0053683,18.2692482 20.4402197,18.0391745 19.8524179,18.0427564 C18.6284244,18.0502152 17.6422238,19.0484965 17.6496675,20.2724902 C17.6571112,21.4964838 18.6553805,22.4826967 19.8793742,22.475268 C21.1033679,22.4678394 22.0895931,21.4695823 22.0821795,20.2455885 Z M13.8848436,20.2455885 C13.8789149,19.0272576 12.8895851,18.042742 11.6712397,18.0427564 C10.7733653,18.041682 9.96355651,18.582442 9.62046997,19.4121837 C9.27738343,20.2419254 9.468816,21.1966846 10.1052562,21.8300278 C10.7416964,22.4633709 11.697378,22.6501439 12.5254363,22.3030139 C13.3534946,21.955884 13.8902978,21.143447 13.8848436,20.2455885 Z" id="Combined-Shape"></path>
                    </g>
                </g>
            </g>
        </g>
    </g>
</svg>
